public/svg/lexisnexis.svg

<svg height="100" viewBox="0 0 195 100" width="195" xmlns="http://www.w3.org/2000/svg" xmlns:xlink="http://www.w3.org/1999/xlink"><radialGradient id="a" cx="64.031542%" cy="11.657247%" r="72.687728%"><stop offset=".022" stop-color="#fff2ee"/><stop offset=".251" stop-color="#f9826d"/><stop offset=".406" stop-color="#f7270a"/><stop offset=".5" stop-color="#e62308"/><stop offset=".966" stop-color="#cf2109"/></radialGradient><radialGradient id="b" cx="76.500653%" cy="12.762036%" gradientTransform="matrix(1 0 0 .815469 0 .02355)" r="180.363205%"><stop offset=".022" stop-color="#fde6df"/><stop offset=".64" stop-color="#f84a31"/><stop offset=".843" stop-color="#cf2109"/></radialGradient><g fill="none"><g fill="#231f20" transform="translate(79 42)"><path d="m79.4475806 4.94545455h1.608871c-2.2983871 2.70454545-6.9717742 8.73181815-8.733871 11.12727275h-1.6088709l.2298387-.2318182c1.608871-1.9318182 6.7419355-8.42272728 8.5040322-10.89545455zm-51.1774193 0h1.608871c-2.2983871 2.70454545-6.9717742 8.73181815-8.733871 11.12727275h-1.608871l.2298387-.2318182c1.608871-1.9318182 6.7419355-8.42272728 8.5040323-10.89545455z"/><path d="m70.8669355 4.94545455h2.2217742c1.6088709 2.31818181 5.7459677 8.34545455 8.0443548 11.12727275h-2.2217742c-.9959677-1.6227273-6.282258-8.88636366-8.0443548-11.12727275zm14.0201613 11.12727275h-1.6854839v-11.12727275c.766129.07727272 1.0725806.07727272 1.6854839 0zm-.842742-13.75454548c-.6129032 0-1.0725806-.61818182-1.0725806-1.15909091 0-.61818182.4596774-1.08181818 1.0725806-1.08181818.5362904 0 1.0725807.46363636 1.0725807 1.08181818 0 .54090909-.4596774 1.15909091-1.0725807 1.15909091zm4.0604839 11.51363638c.5362903.85 1.608871 1.7 2.6814516 1.7 1.4556452 0 2.2983871-.9272727 2.2217742-2.1636364-.1532258-3.2454545-5.4395161-1.0045454-5.516129-5.09999998 0-2.24090909 1.6854839-3.47727273 3.7540322-3.47727273 1.2258065 0 2.6048388.54090909 2.6048388.54090909l-.6129033 1.7c-.4596774-.85-1.2258064-1.54545454-2.0685484-1.54545454-1.1491935 0-2.0685483.69545454-2.0685483 1.93181818 0 3.01363638 5.6693548 1.54545454 5.5927419 5.25454548 0 2.0090909-1.5322581 3.7090909-4.1370968 3.5545454-1.2258064-.0772727-3.0645161-.7727272-3.0645161-.7727272zm-25.8951613-4.09545456c.1532258-1.93181819 1.0725807-4.01818182 3.217742-4.01818182 2.2983871 0 2.8346774 2.00909091 2.9112903 4.01818182zm7.8911291.92727276c.2298387-3.8636364-2.1451613-5.71818185-4.6733871-5.71818185-3.4475807 0-5.2862904 2.47272727-5.2862904 5.71818185 0 3.6318181 2.2217742 5.7181818 5.4395162 5.7181818 1.3790322 0 2.8346774-.5409091 3.9838709-1.3909091v-1.1590909c-.6129032.6181818-1.8387096 1.6227273-3.3709677 1.6227273-2.7580645 0-4.1370968-2.1636364-3.983871-4.7136364zm-50.4112904-5.71818185h2.2217742c1.608871 2.31818181 5.7459678 8.34545455 8.0443549 11.12727275h-2.2217742c-.9959678-1.6227273-6.2822581-8.88636366-8.0443549-11.12727275zm14.0967742 11.12727275h-1.6854838v-11.12727275c.766129.07727272 1.0725806.07727272 1.6854838 0zm-.9193548-13.75454548c-.6129032 0-1.0725807-.61818182-1.0725807-1.15909091 0-.61818182.4596775-1.08181818 1.0725807-1.08181818.5362903 0 1.0725806.46363636 1.0725806 1.08181818.0766129.54090909-.4596774 1.15909091-1.0725806 1.15909091zm4.1370968 11.51363638c.5362903.85 1.6088709 1.7 2.6814516 1.7 1.4556451 0 2.2983871-.9272727 2.2217742-2.1636364-.1532258-3.2454545-5.4395162-1.0045454-5.5161291-5.09999998 0-2.24090909 1.6854839-3.47727273 3.7540323-3.47727273 1.2258064 0 2.6048387.54090909 2.6048387.54090909l-.6129032 1.7c-.4596774-.85-1.2258065-1.54545454-2.0685484-1.54545454-1.1491936 0-2.0685484.69545454-2.0685484 1.93181818 0 3.01363638 5.6693548 1.54545454 5.5927419 5.25454548 0 2.0090909-1.532258 3.7090909-4.1370967 3.5545454-1.2258065-.0772727-3.0645162-.7727272-3.0645162-.7727272.1532258-.5409091.5362904-1.6227273.6129033-1.6227273zm-25.9717742-4.09545456c.1532258-1.93181819 1.0725806-4.01818182 3.2177419-4.01818182 2.2983871 0 2.8346774 2.00909091 2.9112903 4.01818182zm7.9677419.92727276c.2298387-3.8636364-2.1451613-5.71818185-4.6733871-5.71818185-3.4475806 0-5.28629032 2.47272727-5.28629032 5.71818185 0 3.6318181 2.22177422 5.7181818 5.43951612 5.7181818 1.3790323 0 2.8346774-.5409091 3.983871-1.3909091v-1.1590909c-.6129032.6181818-1.8387097 1.6227273-3.3709678 1.6227273-2.7580645 0-4.1370967-2.1636364-3.9838709-4.7136364zm-16.77822581 4.0954545c1.53225807.0772727 5.05645162-.0772727 6.35887097-.2318182v1.4681818h-8.42741935v-15.84090904h2.06854838zm55.77419351 1.3136364h-.6895161c-.2298387-.3090909-10.0362903-12.59545457-10.0362903-12.59545457v12.59545457h-1.2258065v-15.91818184h.9193549l9.5766129 11.97727274.2298387.2318182v-12.20909094h1.3024193z"/></g><g transform="translate(22 28)"><circle cx="22.464882" cy="22.285177" fill="url(#a)" r="21.902"/><path d="m29.9323529 5.95129412c.1271765-.12717647 4.9377647-.37876471 4.9377647-.50594118 0-.25435294-3.5443529-.12717647-4.9377647 0 .6358824-.25435294 3.0411765-1.01188235 3.0411765-1.26623529s-4.1747059 1.13905882-4.6834118 1.26623529c-3.6715294-3.04117647-7.1882352-4.30464706-10.3814705-4.43182353-1.645.37876471-3.29 1.01188235-4.8105883 1.645 3.6715294-.76029412 7.8517647-.50594117 12.2808236 1.89935294-7.1882353-2.27811764-13.4198824-1.01188235-17.85170593 1.89935294-2.78405882 2.65964706-4.68341176 5.82523531-5.82523529 9.49676471 3.79870588-7.97617647 12.28082352-13.16829412 23.42258822-10.63582353-15.82517646-.50594118-22.78947058 10.25705883-24.18288234 20.12705883.50594118 3.4171765 1.76941176 6.58 3.79870588 9.3723529-3.54435294-11.1417647 1.76941177-27.85441173 20.63576466-28.86352938-20.12705878 4.05029408-21.77758819 25.32470588-15.57358819 33.80405878 1.76941179 1.2662353 3.92588239 2.4052942 6.07682349 3.1655883-9.11523525-6.204-8.35494114-30.8928235 10.1298824-36.33652943-16.5882353 7.85176473-16.07952942 32.28623533-5.5708824 37.47558823.6704852.1016278 1.3485993.1441834 2.0265295.1271765 1.3180163.0056818 2.6332626-.1212116 3.9258823-.3787647-10.8874118-3.7987059-15.5735882-28.9934706 1.3934118-37.22400003l.5059411.50594118c2.1564706 1.645 6.458353 6.07682355 6.7099412 5.94964705.2515883-.1271765-3.7987059-4.17470588-5.3165294-5.82523529 2.0265294.88470588 6.3588235 3.28999999 6.458353 3.16558819.0995294-.1244117-4.1747059-2.78405878-6.458353-3.92588231 2.2781177.37876471 6.458353 1.2662353 6.458353 1.13905883.2543529-.25435294-3.6715295-1.13905883-6.204-1.645z" fill="url(#b)"/></g></g></svg>

<?xml version="1.0" encoding="UTF-8"?>
<svg width="195px" height="100px" viewBox="0 0 195 100" version="1.1" xmlns="http://www.w3.org/2000/svg" xmlns:xlink="http://www.w3.org/1999/xlink">
    <!-- Generator: Sketch 57 (83077) - https://sketch.com -->
    <title>Untitled 5</title>
    <desc>Created with Sketch.</desc>
    <defs>
        <radialGradient cx="64.0315421%" cy="11.6572468%" fx="64.0315421%" fy="11.6572468%" r="72.6877277%" id="radialGradient-1">
            <stop stop-color="#FFF2EE" offset="2.2%"></stop>
            <stop stop-color="#F9826D" offset="25.1%"></stop>
            <stop stop-color="#F7270A" offset="40.6%"></stop>
            <stop stop-color="#E62308" offset="50%"></stop>
            <stop stop-color="#CF2109" offset="96.6%"></stop>
        </radialGradient>
        <radialGradient cx="76.5006533%" cy="12.7620362%" fx="76.5006533%" fy="12.7620362%" r="180.363205%" gradientTransform="translate(0.765007,0.127620),scale(1.000000,0.815469),translate(-0.765007,-0.127620)" id="radialGradient-2">
            <stop stop-color="#FDE6DF" offset="2.2%"></stop>
            <stop stop-color="#F84A31" offset="64%"></stop>
            <stop stop-color="#CF2109" offset="84.3%"></stop>
        </radialGradient>
    </defs>
    <g id="Page-1" stroke="none" stroke-width="1" fill="none" fill-rule="evenodd">
        <g id="lexisnexis-ar21" transform="translate(22.000000, 28.000000)" fill-rule="nonzero">
            <g id="Group" transform="translate(57.000000, 14.000000)" fill="#231F20">
                <path d="M79.4475806,4.94545455 L81.0564516,4.94545455 C78.7580645,7.65 74.0846774,13.6772727 72.3225806,16.0727273 L70.7137097,16.0727273 L70.9435484,15.8409091 C72.5524194,13.9090909 77.6854839,7.41818182 79.4475806,4.94545455 Z M28.2701613,4.94545455 L29.8790323,4.94545455 C27.5806452,7.65 22.9072581,13.6772727 21.1451613,16.0727273 L19.5362903,16.0727273 L19.766129,15.8409091 C21.375,13.9090909 26.5080645,7.41818182 28.2701613,4.94545455 L28.2701613,4.94545455 Z" id="Shape"></path>
                <path d="M70.8669355,4.94545455 L73.0887097,4.94545455 C74.6975806,7.26363636 78.8346774,13.2909091 81.1330645,16.0727273 L78.9112903,16.0727273 C77.9153226,14.45 72.6290323,7.18636364 70.8669355,4.94545455 Z M84.8870968,16.0727273 L83.2016129,16.0727273 L83.2016129,4.94545455 C83.9677419,5.02272727 84.2741935,5.02272727 84.8870968,4.94545455 L84.8870968,16.0727273 Z M84.0443548,2.31818182 C83.4314516,2.31818182 82.9717742,1.7 82.9717742,1.15909091 C82.9717742,0.540909091 83.4314516,0.0772727273 84.0443548,0.0772727273 C84.5806452,0.0772727273 85.1169355,0.540909091 85.1169355,1.15909091 C85.1169355,1.7 84.6572581,2.31818182 84.0443548,2.31818182 Z M88.1048387,13.8318182 C88.641129,14.6818182 89.7137097,15.5318182 90.7862903,15.5318182 C92.2419355,15.5318182 93.0846774,14.6045455 93.0080645,13.3681818 C92.8548387,10.1227273 87.5685484,12.3636364 87.4919355,8.26818182 C87.4919355,6.02727273 89.1774194,4.79090909 91.2459677,4.79090909 C92.4717742,4.79090909 93.8508065,5.33181818 93.8508065,5.33181818 L93.2379032,7.03181818 C92.7782258,6.18181818 92.0120968,5.48636364 91.1693548,5.48636364 C90.0201613,5.48636364 89.1008065,6.18181818 89.1008065,7.41818182 C89.1008065,10.4318182 94.7701613,8.96363636 94.6935484,12.6727273 C94.6935484,14.6818182 93.1612903,16.3818182 90.5564516,16.2272727 C89.3306452,16.15 87.4919355,15.4545455 87.4919355,15.4545455 L88.1048387,13.8318182 Z M62.2096774,9.73636364 C62.3629032,7.80454545 63.2822581,5.71818182 65.4274194,5.71818182 C67.7258065,5.71818182 68.2620968,7.72727273 68.3387097,9.73636364 L62.2096774,9.73636364 Z M70.1008065,10.6636364 C70.3306452,6.8 67.9556452,4.94545455 65.4274194,4.94545455 C61.9798387,4.94545455 60.141129,7.41818182 60.141129,10.6636364 C60.141129,14.2954545 62.3629032,16.3818182 65.5806452,16.3818182 C66.9596774,16.3818182 68.4153226,15.8409091 69.5645161,14.9909091 L69.5645161,13.8318182 C68.9516129,14.45 67.7258065,15.4545455 66.1935484,15.4545455 C63.4354839,15.4545455 62.0564516,13.2909091 62.2096774,10.7409091 L70.1008065,10.6636364 Z M19.6895161,4.94545455 L21.9112903,4.94545455 C23.5201613,7.26363636 27.6572581,13.2909091 29.9556452,16.0727273 L27.733871,16.0727273 C26.7379032,14.45 21.4516129,7.18636364 19.6895161,4.94545455 Z M33.7862903,16.0727273 L32.1008065,16.0727273 L32.1008065,4.94545455 C32.8669355,5.02272727 33.1733871,5.02272727 33.7862903,4.94545455 L33.7862903,16.0727273 Z M32.8669355,2.31818182 C32.2540323,2.31818182 31.7943548,1.7 31.7943548,1.15909091 C31.7943548,0.540909091 32.2540323,0.0772727273 32.8669355,0.0772727273 C33.4032258,0.0772727273 33.9395161,0.540909091 33.9395161,1.15909091 C34.016129,1.7 33.4798387,2.31818182 32.8669355,2.31818182 Z M37.0040323,13.8318182 C37.5403226,14.6818182 38.6129032,15.5318182 39.6854839,15.5318182 C41.141129,15.5318182 41.983871,14.6045455 41.9072581,13.3681818 C41.7540323,10.1227273 36.4677419,12.3636364 36.391129,8.26818182 C36.391129,6.02727273 38.0766129,4.79090909 40.1451613,4.79090909 C41.3709677,4.79090909 42.75,5.33181818 42.75,5.33181818 L42.1370968,7.03181818 C41.6774194,6.18181818 40.9112903,5.48636364 40.0685484,5.48636364 C38.9193548,5.48636364 38,6.18181818 38,7.41818182 C38,10.4318182 43.6693548,8.96363636 43.5927419,12.6727273 C43.5927419,14.6818182 42.0604839,16.3818182 39.4556452,16.2272727 C38.2298387,16.15 36.391129,15.4545455 36.391129,15.4545455 C36.5443548,14.9136364 36.9274194,13.8318182 37.0040323,13.8318182 Z M11.0322581,9.73636364 C11.1854839,7.80454545 12.1048387,5.71818182 14.25,5.71818182 C16.5483871,5.71818182 17.0846774,7.72727273 17.1612903,9.73636364 L11.0322581,9.73636364 Z M19,10.6636364 C19.2298387,6.8 16.8548387,4.94545455 14.3266129,4.94545455 C10.8790323,4.94545455 9.04032258,7.41818182 9.04032258,10.6636364 C9.04032258,14.2954545 11.2620968,16.3818182 14.4798387,16.3818182 C15.858871,16.3818182 17.3145161,15.8409091 18.4637097,14.9909091 L18.4637097,13.8318182 C17.8508065,14.45 16.625,15.4545455 15.0927419,15.4545455 C12.3346774,15.4545455 10.9556452,13.2909091 11.108871,10.7409091 L19,10.6636364 Z M2.22177419,14.7590909 C3.75403226,14.8363636 7.27822581,14.6818182 8.58064516,14.5272727 L8.58064516,15.9954545 L0.153225806,15.9954545 L0.153225806,0.154545455 L2.22177419,0.154545455 L2.22177419,14.7590909 Z M57.9959677,16.0727273 L57.3064516,16.0727273 C57.0766129,15.7636364 47.2701613,3.47727273 47.2701613,3.47727273 L47.2701613,16.0727273 L46.0443548,16.0727273 L46.0443548,0.154545455 L46.9637097,0.154545455 L56.5403226,12.1318182 L56.7701613,12.3636364 L56.7701613,0.154545455 L58.0725806,0.154545455 L57.9959677,16.0727273 Z" id="Shape"></path>
            </g>
            <g id="Group">
                <circle id="Oval" fill="url(#radialGradient-1)" cx="22.4648824" cy="22.2851765" r="21.902"></circle>
                <path d="M29.9323529,5.95129412 C30.0595294,5.82411765 34.8701176,5.57252941 34.8701176,5.44535294 C34.8701176,5.191 31.3257647,5.31817647 29.9323529,5.44535294 C30.5682353,5.191 32.9735294,4.43347059 32.9735294,4.17911765 C32.9735294,3.92476471 28.7988235,5.31817647 28.2901176,5.44535294 C24.6185882,2.40417647 21.1018824,1.14070588 17.9086471,1.01352941 C16.2636471,1.39229412 14.6186471,2.02541176 13.0980588,2.65852941 C16.7695882,1.89823529 20.9498235,2.15258824 25.3788824,4.55788235 C18.1906471,2.27976471 11.959,3.546 7.52717647,6.45723529 C4.74311765,9.11688235 2.84376471,12.2824706 1.70194118,15.954 C5.50064706,7.97782353 13.9827647,2.78570588 25.1245294,5.31817647 C9.29935294,4.81223529 2.33505882,15.5752353 0.941647059,25.4452353 C1.44758824,28.8624118 2.71105882,32.0252353 4.74035294,34.8175882 C1.196,23.6758235 6.50976471,6.96317647 25.3761176,5.95405882 C5.24905882,10.0043529 3.59852941,31.2787647 9.80252941,39.7581176 C11.5719412,41.0243529 13.7284118,42.1634118 15.8793529,42.9237059 C6.76411765,36.7197059 7.52441176,12.0308824 26.0092353,6.58717647 C9.421,14.4389412 9.92970588,38.8734118 20.4383529,44.0627647 C21.1088381,44.1643925 21.7869522,44.2069481 22.4648824,44.1899412 C23.7828987,44.195623 25.098145,44.0687296 26.3907647,43.8111765 C15.5033529,40.0124706 10.8171765,14.8177059 27.7841765,6.58717647 L28.2901176,7.09311765 C30.4465882,8.73811765 34.7484706,13.1699412 35.0000588,13.0427647 C35.2516471,12.9155882 31.2013529,8.86805882 29.6835294,7.21752941 C31.7100588,8.10223529 36.0423529,10.5075294 36.1418824,10.3831176 C36.2414118,10.2587059 31.9671765,7.59905882 29.6835294,6.45723529 C31.9616471,6.836 36.1418824,7.72347059 36.1418824,7.59629412 C36.3962353,7.34194118 32.4703529,6.45723529 29.9378824,5.95129412 L29.9323529,5.95129412 Z" id="Path" fill="url(#radialGradient-2)"></path>
            </g>
        </g>
    </g>
</svg>
